X:1
T:Sangerhilsen
T:Sangerhilsen
T:Sigurd Lie
C:Sigurd Lie
%%score [ ( 1 2 ) ( 3 4 ) ]
L:1/8
Q:1/4=100
M:4/4
K:D
V:1 treble-8 nm="Tenor"
V:2 treble-8 
V:3 bass nm="Bass"
V:4 bass 
V:1
!f! A2 | d3 d c2 F2 | B2 A2 z2!mf! A2 | B2 c2 d2 e2 |!<(! f2 d2!<)! g2 f2 | (!>!f4 e2) d2 | %6
 f2 e2 z2 d2 | c3 d c2 B2 | A4 z2!mf! A2 | B2 B2 e2 e2 | (e2 d>c) d2 d2 | g2 e2 f2 d2 | e4 z2 A2 | %13
 a3 a g2 f2 | !>!f4 g2 g2 |!<(! d3 d e2!<)! e2 |!f! f6 f2 |!ff! a3 a g2 B2 | !>!f4 e2 =d2 | %19
 f3 d !>!f2 !>!e2 | !>!d4 z2 |] %21
V:2
 A2 | d3 d c2 F2 | B2 A2 x2 A2 | A2 A2 B2 c2 | d2 A2 e2 d2 | d6 d2 | d2 c2 x2 B2 | A3 A A2 ^G2 | %8
w: 1.Du|Flok, hvis Hjer- te|ban- ker Med|fri- ske, var- me|Slag med ly- se|Ung- doms-|tan- ker I|Kreds rundt San- gens|
w: 2.Mens|rundt om kjæm- pes|Stri- den For|Li- vets man- ge|Krav Du ag- te|maa paa|Ti- den Og|Kal- det den dig|
w: 3.Du|fast maa sam- men|knyt- te Med|Har- mo- ni- ens|Baand, Saa rundt i|Sal, i|Hyt- te Frem-|to- ner San- gens|
w: 4.Er|det- te kun Din|Tan- ke, Da|kro- nes skal Dit|Værk. Du Hæ- der|vil Dig|san- ke. Dig|fø- le fri og|
 E4 x2 A2 | B2 B2 B2 B2 | A4 d2 d2 | d2 c2 d2 B2 | c4 x2 A2 | d3 d c2 =c2 | =c4 B2 B2 | %15
w: Flag! Sig|kan du og- saa|fat- te Hvor-|for saa trygt du|staar, Har|fuldt Du lært at|skat- te Den|
w: gav, Du|slut- te maa din|Kjæ- de Og|dan- ne Fyl- king|stærk, Din|ri- ge Sam- klang|spre- de Og|
w: Aand. Den|Skat som blev dig|gi- vet Ei|gjem- mes skal i|Muld, Men|bæ- res frem i|Li- vet Med|
w: stærk. Stævn|frem- ad da paa|Ba- nen. Virk|frei- dig for Din|Sag, Bær|løf- tet San- ger-|fa- nen, Dit|
 B3 B ^c2 c2 | c6 F2 | =c3 c B2 B2 | ^d4 e2 =d2 | d3 A d2 c2 | A4 x2 |] %21
w: Sag hvor- for Du|slaar? Har|fuldt Du lært at|skat- te Den|Sag, hvor- for Du|slaar?|
w: byg- ge En- heds|Værk. Din|ri- ge Sam- klang|spre- de Og|byg- ge En- heds|Værk.|
w: Glans af re- nest|Guld. Men|bæ- res frem i|Li- vet Med|Glans af re- nest|Guld.|
w: plet- fri' skjøn- ne|Flag. Bær|løf- tet San- ger-|fa- nen. Dit|plet- fri' skjøn- ne|Flag.|
V:3
!f! A,2 | D3 D C2 F,2 | B,2 A,2 z2!mf! A,2 | A,2 A,2 A,2 A,2 |!<(! A,2 A,2!<)! A,2 A,2 | B,6 B,2 | %6
 A,2 A,2 z2 F,2 | E,3 F, E,2 D,2 | C,4 z2 A,2 | A,2 A,2 G,2!mf! G,2 | F,4 B,2 B,2 | %11
 B,2 A,2 A,2 A,2 | A,4 z2 A,2 | A,3 A, A,2 A,2 | A,4 G,2 G,2 | B,3 B, B,2 B,2 |!f! ^A,6 F,2 | %17
!ff! F,3 F, G,2 G,2 | =C4 B,2 B,2 | A,3 F, A,2 G,2 | F,4 z2 |] %21
V:4
 A,2 | D3 D C2 F,2 | B,2 A,2 x2 A,2 | ^G,2 =G,2 F,2 E,2 | D,2 F,2 C,2 D,2 | !>!G,6 ^G,2 | %6
w: ||||||
w: ||||||
w: ||||||
w: ||||||
 A,2 A,,2 x2 D,2 | E,3 F, E,2 E,,2 | A,,4 x2 z2 | z4 z2 A,,2 | F,2 F,2 B,2 B,2 | E,2 A,2 D,2 F,2 | %12
w: |||1.Sig|fat- ter du *||
w: |||2.Du|slut- te Kjæ- de||
w: |||3.Den|skat, du fik, *||
w: |||4.Stevn|frem- ad da, *||
 A,4 x2 A,2 | F,3 F, E,2 ^D,2 | ^D,4 E,2 E,2 | G,3 G, G,2 G,2 | F,6 F,2 | ^D,3 D, E,2 E,2 | %18
w: |||||* * * 1.har|
w: |||||* * * 2.din|
w: |||||* * * 3.men|
w: |||||* * * 4.Bær|
 A,3 A, G,2 ^G,2 | A,3 F, !>!A,2 !>!A,,2 | !>!D,4 x2 |] %21
w: fuldt Du lært *|||
w: ri- ge Klang *|||
w: bæ- res frem *|||
w: Fa- nen frem, *|||

